X:189
T:Campbells are Coming,The. RH.189
R:Jig
S:Rev.R.Harrison’s MS,c1815,Cumbria
O:England
A:Temple Sowerby,Cumbria
Z:vmp.Simon Wilson. Review PJH, 2008.
M:6/8
L:1/8
Q:3/8=120
K:G
G|B2e dBG|A>BA A2G|B2e dBG|d>BB B2A|\
B2e dBG|A>BA g2a|g>ge dBG|B>cB B2:|!
|:G|g2g gab|d>ed dBG|g2g gab|g>ee e2d|\
def gfe|def gab|g>eg dBG|B>cB B2:|

